src/images/svg/symbols/markets-stocks-and-indices/american-stocks/stocks-citigroup.svg

<svg width="32" height="32" viewBox="0 0 32 32" fill="none" xmlns="http://www.w3.org/2000/svg">
<path d="M0 16C0 7.16344 7.16344 0 16 0C24.8366 0 32 7.16344 32 16C32 24.8366 24.8366 32 16 32C7.16344 32 0 24.8366 0 16Z" fill="#33347E"/>
<path d="M17.1044 14.2772V12.7817H18.4774V11.1509L20.0889 10.2871V12.7817H21.752V14.2772H20.0374V18.5639C20.0374 19.1569 20.2952 19.4599 20.798 19.4599C21.2306 19.4386 21.6494 19.3004 22.0099 19.0602L22.1066 19.0022L21.7134 20.517C21.2787 20.7789 20.7764 20.9067 20.2694 20.8845C20.0237 20.8851 19.7809 20.8318 19.5581 20.7282C19.3353 20.6246 19.138 20.4733 18.9802 20.285C18.6333 19.8659 18.4542 19.333 18.4774 18.7895V14.2772H17.1044Z" fill="white"/>
<path d="M13.9781 12.7689H15.6089V20.7555H13.9781V12.7689Z" fill="white"/>
<path d="M25.0073 12.7689H23.3571V20.7555H25.0073V12.7689Z" fill="white"/>
<path d="M11.7719 13.0051C12.2561 13.2456 12.6781 13.5949 13.0047 14.0258H12.9982L12.0765 15.141V15.1088C11.8318 14.8355 11.5343 14.6146 11.202 14.4595C10.8696 14.3044 10.5092 14.2183 10.1426 14.2063C9.80885 14.1973 9.47681 14.2574 9.16733 14.3827C8.85785 14.508 8.5776 14.696 8.34417 14.9347C8.10984 15.1811 7.92655 15.4714 7.80485 15.7889C7.68316 16.1064 7.62547 16.4449 7.63511 16.7848C7.63419 17.128 7.70414 17.4678 7.84057 17.7828C7.977 18.0978 8.17697 18.3813 8.42797 18.6154C8.65849 18.8545 8.93638 19.0427 9.24385 19.1682C9.55132 19.2936 9.8816 19.3534 10.2135 19.3438C10.5799 19.3304 10.9398 19.2437 11.2719 19.0887C11.6041 18.9336 11.9018 18.7135 12.1474 18.4414V18.4092L13.0691 19.5501H13.0369C12.7023 19.978 12.2735 20.3227 11.7837 20.5575C11.294 20.7924 10.7566 20.9108 10.2135 20.9038C9.6728 20.928 9.13259 20.8454 8.6238 20.6607C8.11501 20.4759 7.64762 20.1928 7.24834 19.8273C6.83476 19.4392 6.50958 18.9665 6.29491 18.4415C6.08024 17.9165 5.9811 17.3515 6.00425 16.7848C5.97777 16.2138 6.07527 15.6439 6.29003 15.1142C6.50479 14.5846 6.83172 14.1077 7.24834 13.7164C8.05768 12.9832 9.12232 12.5967 10.2135 12.6399C10.7542 12.6397 11.2876 12.7647 11.7719 13.0051Z" fill="white"/>
<path fill-rule="evenodd" clip-rule="evenodd" d="M14.7832 11.4547C15.4039 10.8143 16.1441 10.3019 16.962 9.94636C17.7495 9.60625 18.5989 9.43287 19.4566 9.43712C20.3183 9.43602 21.1712 9.60924 21.9642 9.94636C22.7725 10.3087 23.5052 10.8204 24.1236 11.4547H25.9994L25.9285 11.3452C25.1946 10.315 24.227 9.47333 23.1051 8.8892C21.9811 8.305 20.733 8 19.4663 8C18.1996 8 16.9515 8.305 15.8275 8.8892C14.6887 9.47558 13.7072 10.3267 12.9654 11.3709L12.8945 11.4805H14.7768L14.7832 11.4547Z" fill="#EB2E2E"/>
</svg>

<svg width="32" height="32" fill="none" xmlns="http://www.w3.org/2000/svg"><path d="M0 16C0 7.163 7.163 0 16 0s16 7.163 16 16-7.163 16-16 16S0 24.837 0 16Z" fill="#33347E"/><path d="M17.104 14.277v-1.495h1.373V11.15l1.612-.864v2.495h1.663v1.495h-1.715v4.287c0 .593.258.896.761.896.433-.021.851-.16 1.212-.4l.097-.058-.394 1.515a2.58 2.58 0 0 1-1.444.367 1.677 1.677 0 0 1-1.289-.599 2.198 2.198 0 0 1-.503-1.495v-4.513h-1.373ZM13.978 12.769h1.63v7.987h-1.63v-7.987ZM25.007 12.769h-1.65v7.987h1.65v-7.987ZM11.772 13.005c.484.24.906.59 1.233 1.02h-.007l-.921 1.116v-.032a2.715 2.715 0 0 0-1.934-.903 2.425 2.425 0 0 0-1.799.729 2.579 2.579 0 0 0-.709 1.85 2.494 2.494 0 0 0 .793 1.83 2.385 2.385 0 0 0 1.785.729 2.74 2.74 0 0 0 1.934-.903v-.032l.922 1.141h-.032a3.525 3.525 0 0 1-2.824 1.354 4.12 4.12 0 0 1-2.965-1.077 3.951 3.951 0 0 1-1.244-3.042 3.958 3.958 0 0 1 1.244-3.069 4.17 4.17 0 0 1 2.965-1.076c.541 0 1.075.125 1.559.365Z" fill="#fff"/><path fill-rule="evenodd" clip-rule="evenodd" d="M14.783 11.455a6.821 6.821 0 0 1 2.179-1.509 6.214 6.214 0 0 1 2.495-.509 6.388 6.388 0 0 1 2.507.51 7.034 7.034 0 0 1 2.16 1.508h1.875l-.07-.11a8.006 8.006 0 0 0-2.824-2.456 7.89 7.89 0 0 0-7.277 0 8.007 8.007 0 0 0-2.863 2.482l-.07.11h1.882l.006-.026Z" fill="#EB2E2E"/></svg>
